_site/assets/linkarrow.svg

<svg fill="none" height="22" viewBox="0 0 31 22" width="31" xmlns="http://www.w3.org/2000/svg"><path d="m30.6375 9.95036-7.7503-9.354025c-.6414-.713518-1.6693-.781454-2.3443-.232214-.675.549241-.7862 1.659279-.2332 2.330179l5.5188 6.6547h-24.16767c-.917089 0-1.66083.7392-1.66083 1.6508s.743712 1.6509 1.66083 1.6509h24.16767l-5.5188 6.6546c-.5526.6706-.4282 1.7652.2332 2.3302.6823.5827 1.7917.4387 2.3443-.2322l7.7503-9.354c.5047-.7051.4615-1.4159 0-2.09801z" fill="#0e0e0e"/></svg>

<svg width="31" height="22" viewBox="0 0 31 22" fill="none" xmlns="http://www.w3.org/2000/svg">
<path d="M30.6375 9.95036L22.8872 0.596335C22.2458 -0.117183 21.2179 -0.185119 20.5429 0.364121C19.8679 0.913362 19.7567 2.0234 20.3097 2.6943L25.8285 9.349L1.66083 9.349C0.743741 9.349 0 10.0882 0 10.9998C0 11.9114 0.743712 12.6507 1.66083 12.6507L25.8285 12.6507L20.3097 19.3053C19.7571 19.9759 19.8815 21.0705 20.5429 21.6355C21.2252 22.2182 22.3346 22.0742 22.8872 21.4033L30.6375 12.0493C31.1422 11.3442 31.099 10.6334 30.6375 9.95129V9.95036Z" fill="#0E0E0E"/>
</svg>
